client/src/assets/img/homeContent.svg

<svg xmlns="http://www.w3.org/2000/svg" viewBox="0 0 500 883"><defs><linearGradient id="A" x1="227.5" x2="227.5" y1="-45.096" y2="310.75" gradientTransform="matrix(.015564 -.99988 1.132 .017576 91.437 672.9)" gradientUnits="userSpaceOnUse"><stop stop-color="#542fe4" offset="0"/><stop stop-color="#7558e9" offset="1"/></linearGradient><linearGradient id="B" x1="227.5" x2="227.5" y1="-45.096" y2="310.75" gradientTransform="matrix(.015564 -.99988 1.132 .017576 87.456 676.9)" gradientUnits="userSpaceOnUse"><stop stop-color="#542fe4" offset="0"/><stop stop-color="#7558e9" offset="1"/></linearGradient><linearGradient id="C" x1="227.5" x2="227.5" y1="-45.096" y2="310.75" gradientTransform="matrix(.015564 -.99988 1.132 .017576 94.633 687.76)" gradientUnits="userSpaceOnUse"><stop stop-color="#542fe4" offset="0"/><stop stop-color="#7558e9" offset="1"/></linearGradient></defs><path d="M107.45 587.16c.616 25.992 41.286.729 64.051 28.964 19.199 23.812 80.288 13.859 86.316 14.055 49.964 1.627 58.053 41.873 97.893 20.39 34.973-18.858 53.412 20.603 87.824 10.778 40.115-11.453 28.264 33.976 59.098 19.807 51.17-23.514-7.168 110.06 21.761 104.23 34.673-6.992 19.312 159.5 19.312 159.5s-147.19-53.405-126.71-62.354c13.366-5.841-40.076-33.676-72.745-35.901-25.535-1.739-62.695 11.619-93.333.574-32.662-11.774-61.485 1.6-102.69-.205-47.51-2.081-45.443-17.805-94.483-20.319-72.875-3.736-98.908-81.416-99.076-81.584s-17.596-41.314-17.596-41.314-20.979-110.6-26.457-211.96c-1.592-29.468 36.826-115.81 87.996-92.297 30.834 14.169 18.983-31.26 59.098-19.807 34.412 9.825 52.851-29.636 87.824-10.778 39.84 21.483 47.929-18.763 97.893-20.39 6.028-.196 67.117 9.757 86.316-14.055 22.765-28.235 56.295-12.013 56.432-33.968.097-15.557-24.162-20.872-39.683-24.566-32.221-7.668-68.703 13.09-99.341 2.045-32.662-11.774-61.485 1.6-102.69-.205-47.51-2.081-45.443-17.805-94.483-20.319-72.875-3.736-98.908-81.416-99.076-81.584s-17.596-41.314-17.596-41.314l2.151-126.73c0-.52 43.647 5.371 69.799-3.681C36.02-6.477 55.572 6.264 77.869 21.455c29.457 20.069 67.097-2.752 89.862 25.483 19.199 23.812 80.288 13.859 86.316 14.055 49.964 1.627 58.053 41.873 97.893 20.39 34.973-18.858 53.412 20.603 87.824 10.778 40.115-11.453 28.264 33.976 59.098 19.807 51.17-23.514 59.526 129.09 59.526 129.09l3.627 54.352c0 .523 2.151 126.73 2.151 126.73l-17.596 41.314c-.168.168-26.201 77.848-99.076 81.584-49.04 2.514-46.973 18.238-94.483 20.319-41.203 1.805-70.026-11.569-102.69.205-30.638 11.045-67.798-2.313-93.333-.574-32.669 2.225-49.888 7.71-49.545 22.18z" fill="url(#A)"/><path transform="matrix(.99278 -.11992000000000001 .11992000000000001 .99278 -55.46099999999999 31.425)" d="M103.47 591.16c.616 25.992 41.286.729 64.051 28.964 19.199 23.813 80.288 13.86 86.316 14.056 49.964 1.627 58.053 41.873 97.893 20.39 34.973-18.858 53.412 20.603 87.824 10.778 40.115-11.453 28.264 33.976 59.098 19.807 51.171-23.514-7.168 110.06 21.761 104.23 34.674-6.992 19.313 159.5 19.313 159.5s-147.19-53.405-126.71-62.354c13.366-5.841-40.076-33.676-72.745-35.901-25.535-1.739-62.695 11.619-93.333.574-32.662-11.774-61.485 1.6-102.69-.205-47.51-2.081-45.443-17.805-94.483-20.319-72.875-3.736-98.908-81.416-99.076-81.584s-17.596-41.314-17.596-41.314-20.979-110.6-26.457-211.96c-1.592-29.468 36.826-115.81 87.996-92.297 30.834 14.169 18.983-31.26 59.098-19.807 34.412 9.825 52.851-29.636 87.824-10.778 39.84 21.483 47.929-18.763 97.893-20.39 6.028-.196 67.117 9.757 86.316-14.055 22.765-28.235 56.295-12.013 56.432-33.968.097-15.557-24.162-20.872-39.683-24.566-32.221-7.668-68.703 13.09-99.341 2.045-32.662-11.774-61.485 1.6-102.69-.205-47.51-2.081-45.443-17.805-94.483-20.319-72.875-3.736-98.908-81.416-99.076-81.584s-17.596-41.314-17.596-41.314l2.151-126.73c0-.52 43.647 5.371 69.799-3.681C32.041-2.476 51.593 10.265 73.89 25.456c29.457 20.069 67.097-2.752 89.862 25.483 19.199 23.812 80.288 13.859 86.316 14.055 49.964 1.627 58.053 41.873 97.893 20.39 34.973-18.858 53.412 20.603 87.824 10.778 40.115-11.453 28.264 33.976 59.098 19.807 51.171-23.514 59.527 129.09 59.527 129.09l3.627 54.352c0 .523 2.151 126.73 2.151 126.73l-17.596 41.314c-.168.168-26.202 77.848-99.077 81.584-49.04 2.514-46.973 18.238-94.483 20.319-41.203 1.805-70.026-11.569-102.69.205-30.638 11.045-67.798-2.313-93.333-.574-32.669 2.225-49.888 7.71-49.545 22.18z" fill="url(#B)" fill-opacity=".8"/><path transform="matrix(.99699 .077473 -.077473 .99699 38.484 -17.172)" d="M110.64 602.02c.616 25.992 41.286.729 64.051 28.964 19.199 23.813 80.287 13.86 86.315 14.056 49.964 1.627 58.053 41.873 97.893 20.39 34.973-18.858 53.412 20.603 87.824 10.778 40.115-11.453 28.264 33.976 59.098 19.807 51.171-23.514-7.168 110.06 21.761 104.23 34.674-6.992 19.313 159.5 19.313 159.5s-147.19-53.405-126.71-62.354c13.366-5.841-40.076-33.676-72.745-35.901-25.535-1.739-62.695 11.619-93.333.574-32.662-11.774-61.484 1.6-102.69-.205-47.51-2.081-45.443-17.805-94.483-20.319-72.875-3.736-98.908-81.416-99.076-81.584s-17.596-41.314-17.596-41.314-20.979-110.6-26.457-211.96c-1.592-29.468 36.826-115.81 87.996-92.297 30.834 14.169 18.983-31.26 59.098-19.807 34.412 9.825 52.851-29.636 87.824-10.778 39.84 21.483 47.929-18.763 97.892-20.39 6.028-.196 67.117 9.757 86.316-14.055 22.765-28.235 56.295-12.013 56.432-33.968.097-15.557-24.162-20.872-39.683-24.566-32.221-7.668-68.703 13.09-99.341 2.045-32.662-11.774-61.484 1.6-102.69-.205-47.51-2.081-45.443-17.805-94.483-20.319-72.875-3.736-98.908-81.416-99.076-81.584s-17.596-41.314-17.596-41.314l2.151-126.73c0-.52 43.647 5.371 69.799-3.681 30.765-10.649 50.317 2.092 72.614 17.283 29.457 20.069 67.097-2.752 89.862 25.483 19.199 23.812 80.287 13.859 86.315 14.055 49.964 1.627 58.053 41.873 97.893 20.39 34.973-18.858 53.412 20.603 87.824 10.778 40.115-11.453 28.264 33.976 59.098 19.807 51.171-23.514 59.527 129.09 59.527 129.09l3.627 54.352c0 .523 2.151 126.73 2.151 126.73l-17.596 41.314c-.168.168-26.202 77.848-99.077 81.584-49.04 2.514-46.973 18.238-94.483 20.319-41.203 1.805-70.026-11.569-102.69.205-30.638 11.045-67.797-2.313-93.332-.574-32.669 2.225-49.888 7.71-49.545 22.18z" fill="url(#C)" fill-opacity=".5"/></svg>

<?xml version="1.0" encoding="utf-8"?>
<svg viewBox="0 0 500 883" xmlns="http://www.w3.org/2000/svg">
  <defs>
    <linearGradient gradientUnits="userSpaceOnUse" x1="227.501" y1="-45.096" x2="227.501" y2="310.748" id="gradient-3" gradientTransform="matrix(0.015564, -0.999877, 1.13197, 0.017576, 91.437107, 672.897226)">
      <stop offset="0" style="stop-color: rgb(84, 47, 228);"/>
      <stop offset="1" style="stop-color: rgb(117, 88, 233);"/>
    </linearGradient>
    <linearGradient gradientUnits="userSpaceOnUse" x1="227.501" y1="-45.096" x2="227.501" y2="310.748" id="gradient-1" gradientTransform="matrix(0.015564, -0.999878, 1.131971, 0.017576, 87.455564, 676.898231)">
      <stop offset="0" style="stop-color: rgb(84, 47, 228);"/>
      <stop offset="1" style="stop-color: rgb(117, 88, 233);"/>
    </linearGradient>
    <linearGradient gradientUnits="userSpaceOnUse" x1="227.501" y1="-45.096" x2="227.501" y2="310.748" id="gradient-2" gradientTransform="matrix(0.015564, -0.999879, 1.131972, 0.017576, 94.633025, 687.763409)">
      <stop offset="0" style="stop-color: rgb(84, 47, 228);"/>
      <stop offset="1" style="stop-color: rgb(117, 88, 233);"/>
    </linearGradient>
  </defs>
  <path style="stroke-width: 0px; stroke: rgb(107, 75, 231); fill: url(#gradient-3);" d="M 107.448 587.156 C 108.064 613.148 148.734 587.885 171.499 616.12 C 190.698 639.932 251.787 629.979 257.815 630.175 C 307.779 631.802 315.868 672.048 355.708 650.565 C 390.681 631.707 409.12 671.168 443.532 661.343 C 483.647 649.89 471.796 695.319 502.63 681.15 C 553.8 657.636 495.462 791.21 524.391 785.376 C 559.064 778.384 543.703 944.872 543.703 944.872 C 543.703 944.872 396.515 891.467 416.994 882.518 C 430.36 876.677 376.918 848.842 344.249 846.617 C 318.714 844.878 281.554 858.236 250.916 847.191 C 218.254 835.417 189.431 848.791 148.228 846.986 C 100.718 844.905 102.785 829.181 53.745 826.667 C -19.13 822.931 -45.163 745.251 -45.331 745.083 C -45.499 744.915 -62.927 703.769 -62.927 703.769 C -62.927 703.769 -83.906 593.172 -89.384 491.806 C -90.976 462.338 -52.558 375.995 -1.388 399.509 C 29.446 413.678 17.595 368.249 57.71 379.702 C 92.122 389.527 110.561 350.066 145.534 368.924 C 185.374 390.407 193.463 350.161 243.427 348.534 C 249.455 348.338 310.544 358.291 329.743 334.479 C 352.508 306.244 386.038 322.466 386.175 300.511 C 386.272 284.954 362.013 279.639 346.492 275.945 C 314.271 268.277 277.789 289.035 247.151 277.99 C 214.489 266.216 185.666 279.59 144.463 277.785 C 96.953 275.704 99.02 259.98 49.98 257.466 C -22.895 253.73 -48.928 176.05 -49.096 175.882 C -49.264 175.714 -66.692 134.568 -66.692 134.568 C -66.692 134.568 -64.541 8.357 -64.541 7.834 C -64.541 7.311 -20.894 13.205 5.258 4.153 C 36.023 -6.496 55.575 6.245 77.872 21.436 C 107.329 41.505 144.969 18.684 167.734 46.919 C 186.933 70.731 248.022 60.778 254.05 60.974 C 304.014 62.601 312.103 102.847 351.943 81.364 C 386.916 62.506 405.355 101.967 439.767 92.142 C 479.882 80.689 468.031 126.118 498.865 111.949 C 550.035 88.435 558.391 241.042 558.391 241.042 C 558.391 241.042 562.018 294.871 562.018 295.394 C 562.018 295.917 564.169 422.128 564.169 422.128 C 564.169 422.128 546.741 463.274 546.573 463.442 C 546.405 463.61 520.372 541.29 447.497 545.026 C 398.457 547.54 400.524 563.264 353.014 565.345 C 311.811 567.15 282.988 553.776 250.326 565.55 C 219.688 576.595 182.528 563.237 156.993 564.976 C 124.324 567.201 107.105 572.686 107.448 587.156 Z"/>
  <path style="stroke-width: 0px; stroke: rgb(107, 75, 231); fill: url(#gradient-1); fill-opacity: 0.8;" d="M 103.466 591.156 C 104.082 617.148 144.752 591.885 167.517 620.12 C 186.716 643.933 247.805 633.98 253.833 634.176 C 303.797 635.803 311.886 676.049 351.726 654.566 C 386.699 635.708 405.138 675.169 439.55 665.344 C 479.665 653.891 467.814 699.32 498.648 685.151 C 549.819 661.637 491.48 795.211 520.409 789.377 C 555.083 782.385 539.722 948.873 539.722 948.873 C 539.722 948.873 392.533 895.468 413.012 886.519 C 426.378 880.678 372.936 852.843 340.267 850.618 C 314.732 848.879 277.572 862.237 246.934 851.192 C 214.272 839.418 185.449 852.792 144.246 850.987 C 96.736 848.906 98.803 833.182 49.763 830.668 C -23.112 826.932 -49.145 749.252 -49.313 749.084 C -49.481 748.916 -66.909 707.77 -66.909 707.77 C -66.909 707.77 -87.888 597.172 -93.366 495.806 C -94.958 466.338 -56.54 379.995 -5.37 403.509 C 25.464 417.678 13.613 372.249 53.728 383.702 C 88.14 393.527 106.579 354.066 141.552 372.924 C 181.392 394.407 189.481 354.161 239.445 352.534 C 245.473 352.338 306.562 362.291 325.761 338.479 C 348.526 310.244 382.056 326.466 382.193 304.511 C 382.29 288.954 358.031 283.639 342.51 279.945 C 310.289 272.277 273.807 293.035 243.169 281.99 C 210.507 270.216 181.684 283.59 140.481 281.785 C 92.971 279.704 95.038 263.98 45.998 261.466 C -26.877 257.73 -52.91 180.05 -53.078 179.882 C -53.246 179.714 -70.674 138.568 -70.674 138.568 C -70.674 138.568 -68.523 12.357 -68.523 11.834 C -68.523 11.311 -24.876 17.205 1.276 8.153 C 32.041 -2.496 51.593 10.245 73.89 25.436 C 103.347 45.505 140.987 22.684 163.752 50.919 C 182.951 74.731 244.04 64.778 250.068 64.974 C 300.032 66.601 308.121 106.847 347.961 85.364 C 382.934 66.506 401.373 105.967 435.785 96.142 C 475.9 84.689 464.049 130.118 494.883 115.949 C 546.054 92.435 554.41 245.042 554.41 245.042 C 554.41 245.042 558.037 298.871 558.037 299.394 C 558.037 299.917 560.188 426.128 560.188 426.128 C 560.188 426.128 542.76 467.274 542.592 467.442 C 542.424 467.61 516.39 545.29 443.515 549.026 C 394.475 551.54 396.542 567.264 349.032 569.345 C 307.829 571.15 279.006 557.776 246.344 569.55 C 215.706 580.595 178.546 567.237 153.011 568.976 C 120.342 571.201 103.123 576.686 103.466 591.156 Z" transform="matrix(0.992784, -0.119915, 0.119915, 0.992784, -55.461114, 31.425314)"/>
  <path style="stroke-width: 0px; stroke: rgb(107, 75, 231); fill: url(#gradient-2); fill-opacity: 0.5;" d="M 110.643 602.02 C 111.259 628.012 151.929 602.749 174.694 630.984 C 193.893 654.797 254.981 644.844 261.009 645.04 C 310.973 646.667 319.062 686.913 358.902 665.43 C 393.875 646.572 412.314 686.033 446.726 676.208 C 486.841 664.755 474.99 710.184 505.824 696.015 C 556.995 672.501 498.656 806.075 527.585 800.241 C 562.259 793.249 546.898 959.737 546.898 959.737 C 546.898 959.737 399.709 906.332 420.188 897.383 C 433.554 891.542 380.112 863.707 347.443 861.482 C 321.908 859.743 284.748 873.101 254.11 862.056 C 221.448 850.282 192.626 863.656 151.423 861.851 C 103.913 859.77 105.98 844.046 56.94 841.532 C -15.935 837.796 -41.968 760.116 -42.136 759.948 C -42.304 759.78 -59.732 718.634 -59.732 718.634 C -59.732 718.634 -80.711 608.036 -86.189 506.67 C -87.781 477.202 -49.363 390.859 1.807 414.373 C 32.641 428.542 20.79 383.113 60.905 394.566 C 95.317 404.391 113.756 364.93 148.729 383.788 C 188.569 405.271 196.658 365.025 246.621 363.398 C 252.649 363.202 313.738 373.155 332.937 349.343 C 355.702 321.108 389.232 337.33 389.369 315.375 C 389.466 299.818 365.207 294.503 349.686 290.809 C 317.465 283.141 280.983 303.899 250.345 292.854 C 217.683 281.08 188.861 294.454 147.658 292.649 C 100.148 290.568 102.215 274.844 53.175 272.33 C -19.7 268.594 -45.733 190.914 -45.901 190.746 C -46.069 190.578 -63.497 149.432 -63.497 149.432 C -63.497 149.432 -61.346 23.221 -61.346 22.698 C -61.346 22.175 -17.699 28.069 8.453 19.017 C 39.218 8.368 58.77 21.109 81.067 36.3 C 110.524 56.369 148.164 33.548 170.929 61.783 C 190.128 85.595 251.216 75.642 257.244 75.838 C 307.208 77.465 315.297 117.711 355.137 96.228 C 390.11 77.37 408.549 116.831 442.961 107.006 C 483.076 95.553 471.225 140.982 502.059 126.813 C 553.23 103.299 561.586 255.906 561.586 255.906 C 561.586 255.906 565.213 309.735 565.213 310.258 C 565.213 310.781 567.364 436.992 567.364 436.992 C 567.364 436.992 549.936 478.138 549.768 478.306 C 549.6 478.474 523.566 556.154 450.691 559.89 C 401.651 562.404 403.718 578.128 356.208 580.209 C 315.005 582.014 286.182 568.64 253.52 580.414 C 222.882 591.459 185.723 578.101 160.188 579.84 C 127.519 582.065 110.3 587.55 110.643 602.02 Z" transform="matrix(0.996994, 0.077473, -0.077473, 0.996994, 38.48428, -17.17226)"/>
</svg>
